X: 261
T: Fang fengzheng
%%abc-version 2.0
%%abcx-abcm2ps-target-version 5.9.1 (29 Sep 2008)
%%abc-creator hum2abc beta
%%abcx-conversion-date 2013/10/02 07:52:29
%%abc-edited-by Helmut Schaffrath
%%humdrum-veritas 3098844629
%%humdrum-veritas-data 1539120785
%%continueall 1
%%barnumbers 0
L: 1/16
M: 2/4
K: C
c2 c EG4 [I:setbarnb 1]| 
c2 e dc4 | 
c A e2 e A d2 | 
c2 c EG4 | 
e C2 d e2 e d | 
c A c E2< G2 A | 
d d c e d c c G | 
G F E DC4 | 
G G D E2< G2 A | 
d d c e d c c G | 
G F E DC4 |]  



